public/images/home/linkedin.svg

<svg width="22" height="22" viewBox="0 0 22 22" fill="none" xmlns="http://www.w3.org/2000/svg">
<path d="M16.4695 0.00854492H5.51309C2.4774 0.00854492 0 2.48594 0 5.52163V16.4955C0 19.5137 2.4774 21.9911 5.51309 21.9911H16.4869C19.5226 21.9911 22 19.5137 22 16.478V5.52163C21.9826 2.48594 19.5052 0.00854492 16.4695 0.00854492ZM7.32752 17.8039H4.18715V8.73178H7.32752V17.8039ZM5.73989 7.33606C4.85012 7.33606 4.13481 6.62076 4.13481 5.73099C4.13481 4.84122 4.85012 4.12591 5.73989 4.12591C6.62966 4.12591 7.34496 4.84122 7.34496 5.73099C7.32752 6.62076 6.61221 7.33606 5.73989 7.33606ZM17.8128 17.8039H17.7954H15.1784V13.4074C15.1784 12.3432 15.0389 10.9824 13.5908 10.9824C12.1079 10.9824 11.8636 12.1338 11.8636 13.3376V17.8039H9.24663V8.73178H11.6891V9.95303H11.7589C12.1427 9.25517 13.0325 8.71433 14.4282 8.71433C17.3069 8.71433 17.8128 10.3717 17.8128 12.8317V17.8039Z" fill="#43484C"/>
</svg>

<svg xmlns="http://www.w3.org/2000/svg" width="22" height="22" fill="none" xmlns:v="https://vecta.io/nano"><path d="M16.47.009H5.513C2.477.009 0 2.486 0 5.522v10.974c0 3.018 2.477 5.496 5.513 5.496h10.974c3.036 0 5.513-2.477 5.513-5.513V5.522C21.983 2.486 19.505.009 16.47.009zM7.328 17.804h-3.14V8.732h3.14v9.072zM5.74 7.336a1.6 1.6 0 0 1-1.605-1.605A1.6 1.6 0 0 1 5.74 4.126a1.6 1.6 0 0 1 1.605 1.605c-.017.89-.733 1.605-1.605 1.605zm12.073 10.468h-.017-2.617v-4.396c0-1.064-.139-2.425-1.588-2.425-1.483 0-1.727 1.151-1.727 2.355v4.466H9.247V8.732h2.442v1.221h.07c.384-.698 1.274-1.239 2.669-1.239 2.879 0 3.385 1.657 3.385 4.117v4.972z" fill="#43484c"/></svg>
